packages/core/src/svgs/acq.svg

<svg width="24" height="24" viewBox="0 0 24 24" fill="none" xmlns="http://www.w3.org/2000/svg">
<g clip-path="url(#clip0_31_5537)">
<path d="M0 0H24V24H0V0Z" fill="#F0F3FA"/>
<path fill-rule="evenodd" clip-rule="evenodd" d="M12.0001 18.4286C13.705 18.4286 15.3402 17.7513 16.5458 16.5458C17.7513 15.3402 18.4286 13.705 18.4286 12.0001C18.4286 10.2951 17.7513 8.65997 16.5458 7.45438C15.3402 6.24879 13.705 5.5715 12.0001 5.5715C10.2951 5.5715 8.65997 6.24879 7.45438 7.45438C6.24879 8.65997 5.5715 10.2951 5.5715 12.0001C5.5715 13.705 6.24879 15.3402 7.45438 16.5458C8.65997 17.7513 10.2951 18.4286 12.0001 18.4286ZM12.0001 19.2858C13.9324 19.2858 15.7855 18.5182 17.1518 17.1518C18.5182 15.7855 19.2858 13.9324 19.2858 12.0001C19.2858 10.0678 18.5182 8.21463 17.1518 6.84829C15.7855 5.48196 13.9324 4.71436 12.0001 4.71436C10.0678 4.71436 8.21463 5.48196 6.84829 6.84829C5.48196 8.21463 4.71436 10.0678 4.71436 12.0001C4.71436 13.9324 5.48196 15.7855 6.84829 17.1518C8.21463 18.5182 10.0678 19.2858 12.0001 19.2858Z" fill="url(#paint0_linear_31_5537)"/>
<path d="M13.2858 12.2144V12.8572H7.71436L10.9286 7.71436L12.6429 10.5001H11.7858L10.9286 9.00007L9.00007 12.2144H13.2858Z" fill="#44B4AC"/>
<path d="M11.1428 11.7859V11.1431H16.7143L13.5 16.2859L11.7857 13.5002H12.6428L13.5 15.0002L15.4285 11.7859H11.1428Z" fill="#44B4AC"/>
</g>
<defs>
<linearGradient id="paint0_linear_31_5537" x1="15.2144" y1="5.5715" x2="8.78578" y2="18.2144" gradientUnits="userSpaceOnUse">
<stop stop-color="#837DBA"/>
<stop offset="0.5" stop-color="#0F67A3"/>
<stop offset="1" stop-color="#56BCAF"/>
</linearGradient>
<clipPath id="clip0_31_5537">
<rect width="24" height="24" fill="white"/>
</clipPath>
</defs>
</svg>

<svg xmlns="http://www.w3.org/2000/svg" width="24" height="24" fill="none" viewBox="0 0 24 24"><g clip-path="url(#a)"><path fill="#F0F3FA" d="M0 0h24v24H0z"/><path fill="url(#b)" fill-rule="evenodd" d="M12 18.429A6.429 6.429 0 1 0 12 5.57a6.429 6.429 0 0 0 0 12.858m0 .857a7.285 7.285 0 1 0 0-14.57 7.285 7.285 0 0 0 0 14.57" clip-rule="evenodd"/><path fill="#44B4AC" d="M13.286 12.214v.643H7.714l3.215-5.143 1.714 2.786h-.857L10.929 9 9 12.214z"/><path fill="#44B4AC" d="M11.143 11.786v-.643h5.571L13.5 16.286 11.786 13.5h.857L13.5 15l1.928-3.214z"/></g><defs><linearGradient id="b" x1="15.214" x2="8.786" y1="5.572" y2="18.214" gradientUnits="userSpaceOnUse"><stop stop-color="#837DBA"/><stop offset=".5" stop-color="#0F67A3"/><stop offset="1" stop-color="#56BCAF"/></linearGradient><clipPath id="a"><path fill="#fff" d="M0 0h24v24H0z"/></clipPath></defs></svg>
